src/assets/graphics/ae-logo.svg

<svg width="48px" height="23px" viewBox="0 0 48 23" version="1.1" xmlns="http://www.w3.org/2000/svg"
     xmlns:xlink="http://www.w3.org/1999/xlink">
  <g id="Symbols" stroke="none" stroke-width="1" fill="none" fill-rule="evenodd">
    <g id="logo" fill="#FF0D6A">
      <g id="Group-10">
        <path
          d="M36.3459486,0 C31.5984279,0 28.344323,3.01934617 25.5319149,6.7602109 L27.1984888,9.23815464 C29.7749188,5.65082194 32.5130013,2.82833873 36.3459486,2.82833873 C40.7486491,2.82833873 44.409704,6.07675329 45.0857681,10.3144013 L34.156334,10.3144013 L34.156334,13.1428571 L47.9150893,13.1428571 C47.9706609,12.6790991 48,12.2072603 48,11.7286292 C48,5.26142911 42.772009,0 36.3459486,0"
          id="SHAPE"></path>
        <path
          d="M24.7048543,10.2583038 C20.8303333,4.33029121 17.1731261,0 11.5006002,0 C5.15910213,0 0,5.15889246 0,11.5000574 C0,17.8411075 5.15910213,23 11.5006002,23 C16.1772748,23 19.3855485,20.0497157 22.1574916,16.3907109 L20.5249132,13.9454416 C17.9831138,17.4612554 15.2816786,20.2266661 11.5006002,20.2266661 C6.68336425,20.2266661 2.76433592,16.3119387 2.76433592,11.5000574 C2.76433592,6.68817618 6.68336425,2.77321904 11.5006002,2.77321904 C16.1261822,2.77321904 19.013708,6.60779634 23.0443453,12.7319358 C27.0749825,18.8560752 30.584589,23 36.2572283,23 C41.1322557,23 45.3079959,19.9508485 46.9787234,15.6599434 L43.9353084,15.6599434 C42.4535099,18.37793 39.5674601,20.2266661 36.2572283,20.2266661 C31.6315328,20.2266661 28.5793753,16.1863165 24.7048543,10.2583038 Z"
          id="SHAPE"></path>
      </g>
    </g>
  </g>
</svg>

<svg width="48" height="23" xmlns="http://www.w3.org/2000/svg"><g fill="#FF0D6A" fill-rule="evenodd"><path d="M36.346 0c-4.748 0-8.002 3.02-10.814 6.76l1.666 2.478c2.577-3.587 5.315-6.41 9.148-6.41 4.403 0 8.064 3.249 8.74 7.486h-10.93v2.829h13.76c.055-.464.084-.936.084-1.414C48 5.26 42.772 0 36.346 0"/><path d="M24.705 10.258C20.83 4.33 17.173 0 11.5 0 5.159 0 0 5.159 0 11.5S5.16 23 11.5 23c4.677 0 7.886-2.95 10.657-6.61l-1.632-2.445c-2.542 3.516-5.243 6.282-9.024 6.282-4.818 0-8.737-3.915-8.737-8.727s3.92-8.727 8.737-8.727c4.625 0 7.513 3.835 11.543 9.959C27.075 18.856 30.584 23 36.257 23c4.875 0 9.051-3.05 10.722-7.34h-3.044a8.745 8.745 0 0 1-7.678 4.567c-4.625 0-7.678-4.04-11.552-9.969z"/></g></svg>
